src/svg/squirrel.svg

<svg height="16" width="16" xmlns="http://www.w3.org/2000/svg" viewBox="0 0 16 16">
  <path d="M12 1c-2.21 0-4 1.31-4 2.92C8 5.86 8.5 6.95 8 10c0-4.5-2.77-6.34-4-6.34 0.05-0.5-0.48-0.66-0.48-0.66s-0.22 0.11-0.3 0.34c-0.27-0.31-0.56-0.27-0.56-0.27l-0.13 0.58c0 0-1.83 0.64-1.85 3.22C0.88 7.2 2.21 7.47 3.15 7.3c0.89 0.05 0.67 0.79 0.47 0.99C2.78 9.13 2 8 1 8s-1 1 0 1 1 1 3 1c-3.09 1.2 0 4 0 4h-1c-1 0-1 1-1 1s4 0 6 0c3 0 5-1 5-3.47 0-0.85-0.43-1.79-1-2.53C10.89 7.54 12.23 6.32 13 7s3 1 3-2C16 2.79 14.21 1 12 1zM2.5 6c-0.28 0-0.5-0.22-0.5-0.5 0-0.28 0.22-0.5 0.5-0.5 0.28 0 0.5 0.22 0.5 0.5C3 5.78 2.78 6 2.5 6z" />
</svg>

<?xml version="1.0" encoding="UTF-8" standalone="no"?>
<svg width="16px" height="16px" viewBox="0 0 16 16" version="1.1" xmlns="http://www.w3.org/2000/svg" xmlns:xlink="http://www.w3.org/1999/xlink">
    <!-- Generator: Sketch 3.7.1 (28215) - http://www.bohemiancoding.com/sketch -->
    <title>squirrel</title>
    <desc>Created with Sketch.</desc>
    <defs></defs>
    <g id="Octicons" stroke="none" stroke-width="1" fill="none" fill-rule="evenodd">
        <g id="squirrel" fill="#000000">
            <path d="M12,1 C9.79,1 8,2.31 8,3.92 C8,5.86 8.5,6.95 8,10 C8,5.5 5.23,3.66 4,3.66 C4.05,3.16 3.52,3 3.52,3 C3.52,3 3.3,3.11 3.22,3.34 C2.95,3.03 2.66,3.07 2.66,3.07 L2.53,3.65 C2.53,3.65 0.7,4.29 0.68,6.87 C0.88,7.2 2.21,7.47 3.15,7.3 C4.04,7.35 3.82,8.09 3.62,8.29 C2.78,9.13 2,8 1,8 C0,8 0,9 1,9 C2,9 2,10 4,10 C0.91,11.2 4,14 4,14 L3,14 C2,14 2,15 2,15 L8,15 C11,15 13,14 13,11.53 C13,10.68 12.57,9.74 12,9 C10.89,7.54 12.23,6.32 13,7 C13.77,7.68 16,8 16,5 C16,2.79 14.21,1 12,1 L12,1 Z M2.5,6 C2.22,6 2,5.78 2,5.5 C2,5.22 2.22,5 2.5,5 C2.78,5 3,5.22 3,5.5 C3,5.78 2.78,6 2.5,6 L2.5,6 Z" id="Shape"></path>
        </g>
    </g>
</svg>
